svg/blobs-icons/no-decorations/honey-jar.svg

<svg xmlns="http://www.w3.org/2000/svg" xmlns:xlink="http://www.w3.org/1999/xlink" preserveAspectRatio="xMidYMid" width="217" height="181" viewBox="0 0 217 181"><defs><style>.cls-3{fill:#fbb713}.cls-4{fill:#fff}.cls-5{fill:#020403;opacity:.2}.cls-6{fill:#020403;opacity:.35}.cls-8{fill:#142a3b}.cls-9{fill:#2476ff}</style></defs><g id="group-142svg"><path d="M18.259 47C6.961 58 .376 81.358.376 103.365c0 32.153 14.048 62.631 36.335 77.63H180.135c22.288-14.999 36.335-45.477 36.335-77.63C216.47 81.358 209.885 58 198.586 47H18.259z" id="path-1" class="cls-3" fill-rule="evenodd"/><path d="M34.144 163.677c-1.245.0-2.457-.643000000000001-3.128-1.798-9.518-16.347-14.76-36.407-14.76-56.478.0-10.183 1.343-20.169 3.994-29.68.538-1.922 2.527-3.045 4.453-2.512C26.625 73.745 27.749 75.739 27.214 77.662c-2.474 8.88-3.729 18.212-3.729 27.739.0 18.812 4.894 37.579 13.779 52.842C38.268 159.968 37.684 162.181 35.958 163.186 35.386 163.519 34.762 163.677 34.144 163.677z" id="path-2" class="cls-4" fill-rule="evenodd"/><path d="M198.586 46.886s-18.117.0-18.117.0C187.872 60.172 192.101 76.68 192.101 93.887c0 31.578-14.048 63.098-36.335 77.459H25.285C28.793 175.045 32.61 178.278 36.711 180.919H180.135c22.287-14.36 36.335-45.88 36.335-77.459C216.47 81.847 209.885 61.247 198.586 46.886z" id="path-3" class="cls-5" fill-rule="evenodd"/><path d="M75.873 130.377s-19.789.0-19.789.0S56.084 140.125 56.084 140.125s26.05.0 26.05.0C79.666 137.445 77.537 134.24 75.873 130.377z" id="path-4" class="cls-6" fill-rule="evenodd"/><path d="M166.084 106.191s0 24.37.0 24.37S141.932 130.528 141.932 130.528c-6.298 14.623-18.935 19.535-33.509 19.535C100.579 150.063 93.34 149.146 87.304 145.333 94.139 156.236 105.413 160.627 118.171 160.627c14.574.0 27.212-5.72900000000001 33.508-20.35h25.293s0-34.119.0-34.119S166.084 106.191 166.084 106.191z" id="path-5" class="cls-6" fill-rule="evenodd"/><path d="M165.979 97.998s-24.047.0-24.047.0C135.634 91 122.997 77.648 108.423 77.648S81.212 91 74.914 97.998H39.987s0 31.999.0 31.999 34.927.0 34.927.0c6.298 18.001 18.935 20.352 33.509 20.352s27.211-2.351 33.509-20.352h24.047s0-31.999.0-31.999z" id="path-6" class="cls-8" fill-rule="evenodd"/><path d="M198.479 26.012s-10.809 2.989.0 20.988H17.884c10.808-17.999.0-21.283.0-21.283S198.479 26.012 198.479 26.012z" id="path-7" class="cls-9" fill-rule="evenodd"/><path d="M196.866 25.518s-176.996.0-176.996.0 3.21 3.167 3.039 9.757L184.099 35.361S178.159 39.097 179.511 47h19.21C187.911 32.378 196.866 25.518 196.866 25.518z" id="path-8" class="cls-6" fill-rule="evenodd"/><path d="M216.977 29.001s-216.988.0-216.988.0.0-28.998.0-28.998 216.988.0 216.988.0.0 28.998.0 28.998z" id="path-9" class="cls-8" fill-rule="evenodd"/><path d="M178.204.206s0 28.916.0 28.916 38.484.0 38.484.0S216.47.206 216.47.206s-38.266.0-38.266.0z" id="path-10" class="cls-6" fill-rule="evenodd"/></g></svg>

<svg xmlns="http://www.w3.org/2000/svg" xmlns:xlink="http://www.w3.org/1999/xlink" preserveAspectRatio="xMidYMid" width="217" height="181" viewBox="0 0 217 181">
  <defs>
    <style>

      .cls-3 {
        fill: #fbb713;
      }

      .cls-4 {
        fill: #ffffff;
      }

      .cls-5 {
        fill: #020403;
        opacity: 0.2;
      }

      .cls-6 {
        fill: #020403;
        opacity: 0.35;
      }

      .cls-8 {
        fill: #142a3b;
      }

      .cls-9 {
        fill: #2476ff;
      }
    </style>
  </defs>
  <g id="group-142svg">
    <path d="M18.259,47.000 C6.961,58.000 0.376,81.358 0.376,103.365 C0.376,135.518 14.424,165.996 36.711,180.995 C36.711,180.995 180.135,180.995 180.135,180.995 C202.423,165.996 216.470,135.518 216.470,103.365 C216.470,81.358 209.885,58.000 198.586,47.000 C198.586,47.000 18.259,47.000 18.259,47.000 Z" id="path-1" class="cls-3" fill-rule="evenodd"/>
    <path d="M34.144,163.677 C32.899,163.677 31.687,163.034 31.016,161.879 C21.498,145.532 16.256,125.472 16.256,105.401 C16.256,95.218 17.599,85.232 20.250,75.721 C20.788,73.799 22.777,72.676 24.703,73.209 C26.625,73.745 27.749,75.739 27.214,77.662 C24.740,86.542 23.485,95.874 23.485,105.401 C23.485,124.213 28.379,142.980 37.264,158.243 C38.268,159.968 37.684,162.181 35.958,163.186 C35.386,163.519 34.762,163.677 34.144,163.677 Z" id="path-2" class="cls-4" fill-rule="evenodd"/>
    <path d="M198.586,46.886 C198.586,46.886 180.469,46.886 180.469,46.886 C187.872,60.172 192.101,76.680 192.101,93.887 C192.101,125.465 178.053,156.985 155.766,171.346 C155.766,171.346 25.285,171.346 25.285,171.346 C28.793,175.045 32.610,178.278 36.711,180.919 C36.711,180.919 180.135,180.919 180.135,180.919 C202.422,166.559 216.470,135.039 216.470,103.460 C216.470,81.847 209.885,61.247 198.586,46.886 Z" id="path-3" class="cls-5" fill-rule="evenodd"/>
    <path d="M75.873,130.377 C75.873,130.377 56.084,130.377 56.084,130.377 C56.084,130.377 56.084,140.125 56.084,140.125 C56.084,140.125 82.134,140.125 82.134,140.125 C79.666,137.445 77.537,134.240 75.873,130.377 Z" id="path-4" class="cls-6" fill-rule="evenodd"/>
    <path d="M166.084,106.191 C166.084,106.191 166.084,130.561 166.084,130.561 C166.084,130.561 141.932,130.528 141.932,130.528 C135.634,145.151 122.997,150.063 108.423,150.063 C100.579,150.063 93.340,149.146 87.304,145.333 C94.139,156.236 105.413,160.627 118.171,160.627 C132.745,160.627 145.383,154.898 151.679,140.277 C151.679,140.277 176.972,140.277 176.972,140.277 C176.972,140.277 176.972,106.158 176.972,106.158 C176.972,106.158 166.084,106.191 166.084,106.191 Z" id="path-5" class="cls-6" fill-rule="evenodd"/>
    <path d="M165.979,97.998 C165.979,97.998 141.932,97.998 141.932,97.998 C135.634,91.000 122.997,77.648 108.423,77.648 C93.849,77.648 81.212,91.000 74.914,97.998 C74.914,97.998 39.987,97.998 39.987,97.998 C39.987,97.998 39.987,129.997 39.987,129.997 C39.987,129.997 74.914,129.997 74.914,129.997 C81.212,147.998 93.849,150.349 108.423,150.349 C122.997,150.349 135.634,147.998 141.932,129.997 C141.932,129.997 165.979,129.997 165.979,129.997 C165.979,129.997 165.979,97.998 165.979,97.998 Z" id="path-6" class="cls-8" fill-rule="evenodd"/>
    <path d="M198.479,26.012 C198.479,26.012 187.670,29.001 198.479,47.000 C198.479,47.000 17.884,47.000 17.884,47.000 C28.692,29.001 17.884,25.717 17.884,25.717 C17.884,25.717 198.479,26.012 198.479,26.012 Z" id="path-7" class="cls-9" fill-rule="evenodd"/>
    <path d="M196.866,25.518 C196.866,25.518 19.870,25.518 19.870,25.518 C19.870,25.518 23.080,28.685 22.909,35.275 C22.909,35.275 184.099,35.361 184.099,35.361 C184.099,35.361 178.159,39.097 179.511,47.000 C179.511,47.000 198.721,47.000 198.721,47.000 C187.911,32.378 196.866,25.518 196.866,25.518 Z" id="path-8" class="cls-6" fill-rule="evenodd"/>
    <path d="M216.977,29.001 C216.977,29.001 -0.011,29.001 -0.011,29.001 C-0.011,29.001 -0.011,0.003 -0.011,0.003 C-0.011,0.003 216.977,0.003 216.977,0.003 C216.977,0.003 216.977,29.001 216.977,29.001 Z" id="path-9" class="cls-8" fill-rule="evenodd"/>
    <path d="M178.204,0.206 C178.204,0.206 178.204,29.122 178.204,29.122 C178.204,29.122 216.688,29.122 216.688,29.122 C216.688,29.122 216.470,0.206 216.470,0.206 C216.470,0.206 178.204,0.206 178.204,0.206 Z" id="path-10" class="cls-6" fill-rule="evenodd"/>
  </g>
</svg>
